X:900
T:Waterloo
R:Country Dance
B:The Athole Collection
M:C|
L:1/8
K:D
A/B/c|d2dA F2AF|D2D2D2FA|B2BA G2ed|cded cABc|d2dA F2AF|
D2D2D2FA|B2Bd cdec|d2f2d2:|
|:cd|ecAc fdAf|gfgf gece|dcdB BAGF|E2e2e2cd|ecAc fdAf|gfgf gece|
dcde fef^g|a^gag a2:|
|:F2|B2B^A B2Bc|dcde f3e|edcd Bcde|f2F2F2^A2|B2B^A B2Bc|
dcde fgfe|fgfe dcB^A|B2B2B2:|

